apps/site/public/icons/companies/about/ivp.svg

<svg xmlns="http://www.w3.org/2000/svg" fill="none" viewBox="0 0 53 40" height="40" width="53">
<mask height="40" width="53" y="0" x="0" maskUnits="userSpaceOnUse" style="mask-type:luminance" id="mask0_449_4124">
<path fill="white" d="M52.0824 0.383072H0.364258V39.89H52.0824V0.383072Z"></path>
</mask>
<g mask="url(#mask0_449_4124)">
<path fill="white" d="M18.1431 11.2412H8.82129V12.2361C10.9223 12.4462 11.6819 13.2687 12.772 15.4236L20.9517 30.7271H21.8245L25.3622 24.1097L18.1431 11.2412Z"></path>
<path fill="white" d="M7.51195 11.2412H0.671875V30.7289H7.51195V11.2412Z"></path>
<path fill="white" d="M4.09048 7.88495C6.14841 7.88495 7.8167 6.21667 7.8167 4.15873C7.8167 2.1008 6.14841 0.43251 4.09048 0.43251C2.03254 0.43251 0.364258 2.1008 0.364258 4.15873C0.364258 6.21667 2.03254 7.88495 4.09048 7.88495Z"></path>
<path fill="white" d="M44.1937 31.1401C49.9707 30.8115 52.0825 25.2931 52.0825 20.7246C52.0825 15.4775 49.8072 10.5212 44.4918 10.3901C41.579 10.3362 39.8048 11.288 38.6465 12.8557V14.0193C39.0646 13.5245 39.6371 13.1848 40.2717 13.055C43.4197 12.4588 45.2747 15.0734 45.2747 20.7246C45.2747 26.3759 43.4197 29.382 40.2717 28.7859C39.64 28.6487 39.0698 28.3103 38.6465 27.8215C37.9193 26.9236 37.6391 25.8947 37.6391 24.3054V11.2323H27.2686V12.2272C29.4738 12.536 30.8044 13.9331 30.8044 16.2156C30.8044 17.2643 30.8134 39.8819 30.8134 39.8819H37.5673V27.9742C37.5673 27.9742 38.9249 31.4418 44.1937 31.1401Z"></path>
</g>
</svg>

<svg xmlns="http://www.w3.org/2000/svg" width="53" height="40" fill="none" viewBox="0 0 53 40"><mask id="a" width="53" height="40" x="0" y="0" maskUnits="userSpaceOnUse" style="mask-type:luminance"><path fill="#fff" d="M52.082.383H.364V39.89h51.718z"/></mask><g fill="#fff" mask="url(#a)"><path d="M18.143 11.241H8.821v.995c2.101.21 2.86 1.033 3.951 3.188l8.18 15.303h.872l3.538-6.617zm-10.631 0H.672V30.73h6.84zM4.09 7.885a3.726 3.726 0 1 0 0-7.452 3.726 3.726 0 0 0 0 7.452M44.194 31.14c5.777-.329 7.889-5.847 7.889-10.415 0-5.248-2.276-10.204-7.591-10.335-2.913-.054-4.687.898-5.845 2.466v1.163c.418-.495.99-.834 1.625-.964 3.148-.596 5.003 2.018 5.003 7.67 0 5.65-1.855 8.657-5.003 8.06a3 3 0 0 1-1.625-.963c-.728-.898-1.008-1.927-1.008-3.517V11.232H27.27v.995c2.205.309 3.535 1.706 3.535 3.989l.01 23.666h6.753V27.974s1.358 3.468 6.627 3.166"/></g></svg>
